X:1
T:A Midsummer Night's Dream - Scherzo
T:A Midsummer Night's Dream - Scherzo
T:Composer: Felix Mendelssohn Arranger: A.J. Johnson
C:Felix Mendelssohn
%%score { 1 | 2 }
L:1/8
Q:1/4=140
M:3/8
K:Bb
V:1 treble nm="Piano" snm="Pno."
V:2 treble 
V:1
"^Molto Allegro"!mp! [gbd']c'/b/c'/a/ | !wedge![gb]!wedge![dg]!wedge![Bd] | [fb]a/g/a/^f/ | %3
 !wedge![Bg]!wedge![Bd]!wedge![GB] | [Bd]A/G/A/^F/ | GA/G/A/^F/ | GA/G/A/^F/ | %7
 !wedge![=EG]/!wedge![FA]/!wedge![GB]/!wedge![A^c]/!wedge![Bd]/!wedge![c=e]/ | [dfa]g/f/g/=e/ | %9
 !wedge![df]!wedge![Ad]!wedge![FA] | [df]=e/d/e/^c/ | !wedge![FAd]!wedge![FA]!wedge!F | %12
 [FA]=E/D/E/^C/ | [DA]=E/D/E/^C/ | %14
 !wedge![B,D]/!wedge![C=E]/!wedge![DF]/!wedge![EG]/!wedge![FA]/!wedge![GB]/ | %15
 !wedge![Ac]/!wedge![Bd]/!wedge![c=e]/!wedge![df]/!wedge![eg]/!wedge![fa]/ | %16
!mf! [gbd'][ac']/[gb]/[ac']/[^fa]/ | !wedge![gb]!wedge![dg]!wedge![Bd] | [dbd']a/g/a/^f/ | %19
 [Bdg][Bd][GB] | [Bd][Ac]/[GB]/[Ac]/[^FB]/ | [GB][Ac]/[GB]/[Ac]/[^FB]/ | %22
 [GB][Ac]/[GB]/[Ac]/[^FB]/ | %23
 !wedge![EG]/!wedge![FA]/!wedge![GB]/!wedge![Ac]/!wedge![Bd]/!wedge![ce]/ | %24
 [df][Bd]/[Ac]/[Bd]/[^G=B]/ | [Gg][Ee][Cc] | (3c/4d/4c/4=B/4c/4[Bd][FB] | %27
 !wedge![Ec]/!wedge![GB]/!wedge![Ac]/!wedge![=Bd]/!wedge![ce]/!wedge![df]/ | %28
 [ee'][cc']/[Bb]/[cc']/[Aa]/ | [ff'][dd'][Bb] | [ee'][cc']/[Bb]/[cc']/[Bb]/ | [ff'][dd'][Bb] | %32
 !>![gg'][b_d']/[ac']/[bd']/[gb]/ | !>![ff'][b_d']/[ac']/[bd']/[gb]/ | %34
 !>![=e=e'][b_d']/[ac']/[bd']/[gb]/ | %35
 !wedge![=EG]/!wedge![GB]/!wedge![B_d]/!wedge![df]/!wedge![=eg]/!wedge![gb]/ | %36
 !>![gg'][b_d']/[ac']/[bd']/[gb]/ | !>![ff'][b_d']/[ac']/[bd']/[gb]/ | %38
 !>![=e=e'][b_d']/[ac']/[bd']/[gb]/ | %39
 !wedge![GB]/!wedge![B_d]/!wedge![c=e]/!wedge![eg]/!wedge![gb]/!wedge![b_d']/ | f'!p!g/_e/d/f/ | %41
 (3g/a/g/d/f/e/c/ | B/d/(3e/f/e/B/d/ | c/A/G/B/(3c/d/c/ | G/B/_A/F/E/G/ | (3_A/B/A/E/G/[Ec]/_G/ | %46
"_cresc." f/F/E/D/E/F/ | %47
 !wedge![DF]/!wedge![GB]/!wedge![Bd]/!wedge![df]/!wedge![gb]/!wedge![bd']/ |!f! f'e'/g'/f'/d'/ | %49
 (3b/c'/b/f'/d'/c'/e'/ | d'/b/(3g/a/g/d'/b/ | a/c'/b/g/(3f/g/f/ | b/g/f/_a/g/e/ | (3e/f/e/g/e/c' | %54
 !^![^F^f]3 |!<(! [Gg]2 [cc']!<)! | !^![^F^f]3 | [Gg]2 [cc'] | [_G_g]3 | %59
 !wedge![Ff]!wedge![Aa]!wedge![Bb] | !wedge![Gg]!wedge![Ee]!wedge![Ff] | [Dd]2!f! [cc'] | %62
 [_d^f]/!mp!c/B/c/B/c/ | [_dg]/c/B/c/[Bc']/c/ | [_d^f]/!mp!c/B/c/B/c/ | [_dg]/c/B/c/[Bc']/c/ | %66
 [_d_g]/!mp!c/B/c/B/c/ | !wedge![Ff]!wedge![Aa]!wedge![Bb] | !wedge![Gg]!wedge![Ee]!wedge![Ff] | %69
 [B,B]2 [F,F] | G/F/E/G/F/E/ | FB,F | =E/D/C/E/D/C/ | E2 F/E/ | D/C/B,/G/F/E/ | D/C/B,/G/F/E/ | %76
 D/C/B,/C/D/E/ | F/G/_A/F/B/A/ | G/F/E/G/F/E/ | FB,F | =E/D/C/E/D/C/ | E2 F/E/ | D/C/B,/G/F/E/ | %83
 D/C/B,/G/F/E/ |!8vb(! [D,D]/[C,C]/[B,,B,]/[C,C]/[D,D]/[E,E]/ | %85
 [F,F]/[G,G]/[_A,_A]/[D,D]/[G,G]/[F,F]/ | [=E,=E]/[D,D]/[C,C]/[_A,_A]/[G,G]/[F,F]/ | %87
 [=E,=E]/[D,D]/[C,C]/[_A,_A]/[G,G]/[F,F]/ | [=E,=E]/[D,D]/[C,C]/[D,D]/[E,E]/[F,F]/ | %89
 [G,G]/[A,A]/[_B,_B]/[=E,=E]/[A,A]/[G,G]/ | [^F,^F]/[=E,=E]/[D,D]/[B,B]/[A,A]/[G,G]/ | %91
 [^F,^F]/[=E,=E]/[D,D]/[B,B]/[A,A]/[G,G]/ | [^F,^F]/[=E,=E]/[D,D]/[E,E]/[F,F]/[G,G]/ | %93
 [A,A]/[G,G]/[^F,^F]/[G,G]/[A,A]/[B,B]/!8vb)! |"_dim." [Cc]/[DB]/[EA]/[GB]/[Bc]/d/ | %95
 e/d/c/d/=e/^f/ | g/^f/=e/f/g/a/ |!p! b/a/g/a/b/c'/ | [gbd']c'/b/c'/a/ | %99
 !wedge![gb]!wedge![dg]!wedge![Bd] | [fb]a/g/a/^f/ | !wedge![Bg]!wedge![Bd]!wedge![GB] | %102
 [Bd]A/G/A/^F/ | GA/G/A/^F/ | GA/G/A/^F/ | %105
 !wedge![=EG]/!wedge![FA]/!wedge![GB]/!wedge![A^c]/!wedge![Bd]/!wedge![c=e]/ | [dfa]g/f/g/=e/ | %107
 !wedge![df]!wedge![Ad]!wedge![FA] | [df]=e/d/e/^c/ | !wedge![FAd]!wedge![FA]!wedge!F | %110
 [FA]=E/D/E/^C/ | [DA]=E/D/E/^C/ | [DA]=E/D/E/^C/ | %113
 !wedge![B,D]/!wedge![C=E]/!wedge![DF]/!wedge![E^G]/!wedge![FA]/!wedge![G=B]/ | %114
!mp! !>!^c/[^C=E]/A/[CE]/A/[CE]/ | !>!a/A/=E/A/[^CE]/A/ | !>!B/A/B,/[AB]/B,/[AB]/ | %117
 !>!a/[AB]/B,/[AB]/B,/[AB]/ | !>!=B/A/B,/[AB]/B,/[AB]/ | !>!a/[A=B]/B,/[AB]/B,/[AB]/ | %120
 !>!c/A/C/[Ac]/C/[Ac]/ | !>!a/[Ac]/C/[Ac]/C/[Ac]/ | !>!a/[B^c]/A/[Bc]/A/[Bc]/ | %123
 !>!a/[Bd]/A/[Bd]/A/[Bd]/ | !>!a/[c^d]/A/[cd]/A/[cd]/ | !>!a/[^c=e]/A/[ce]/A/[ce]/ | %126
 !>![df]/F/!>![^d^f]/F/!>![=eg]/G/ | !>![gb]/B/!>![^fa]/A/!>![a^c']/c/ | !>![^fad']!mp!a/c'/b/g/ | %129
!>(! ^f/a/g/d/^c/=e/!>)! |!p! d/A/G/B/A/^F/ | =E/G/^F/D/^C/_E/ | DA/c/B/G/ | ^F/A/G/D/G | %134
!<(! ^FDF | Ada!<)! |!mp! !>!d'/d/A/d/A/d/ | !>!d'/d/A/d/A/d/ | !>!_e/d/E/d/E/d/ | %139
 !>!_e/d/E/d/E/d/ | !>!=e/d/=E/d/E/d/ | !>!=e/d/=E/d/E/d/ | !>!f/d/F/d/F/d/ | !>!f/d/F/d/F/d/ | %144
 !>![e^f]/d/[EF]/d/[EF]/d/ | !>![=eg]/d/G/d/G/d/ | !>![f^g]/d/G/d/G/d/ | !>![^fa]/d/A/d/A/d/ | %148
!ff! !>![gb]/B/!>![^g=b]/B/!>![ac']/c/ | !>![c'e']/e/!>![d'f']/f/!>![^f'a']/a/ | %150
 !>![g=bd'g']!mp!f/_a/g/e/ |!>(! d/f/e/c/=B/d/!>)! |!p! c/G/c/e/d/=B/ | A/c/=B/G/^F/A/ | %154
 G/D/=F/_A/G/E/ | D/F/E/C/=B,/D/ | C/E/G=B | dgd' |"_cresc." !>!g'/g/G/g/G/g/ | %159
 !>!_a/g/[G_A]/g/[GA]/g/ | [Aeg]3 |!mf! [Bfb]3 |!p! !>!b/"_cresc."g/B/g/B/g/ | %163
 !>![bc']/g/c/g/c/g/ | [b^c']3 |!mf! [ac'd']3 |!p! !>!d'/"_cresc."b/d/b/d/b/ | %167
 !>![d'e']/b/e/b/e/b/ |!mf! [=eb_d'=e']3 | [fc'e'f']3 |[K:treble+8]!p! [df]d/c/d/B/ | %171
 [e_g]e/d/e/B/ | [e_gb]e/d/e/B/ | [ce]c/B/c/B/ | [df]d/c/d/B/ | [e_g]e/d/e/B/ | [e_gb]e/d/e/B/ | %177
[K:treble] [c'e']c'/b/c'/b/ | [d'f']d'/c'/d'/b/ | [=eg]_d/c/d/B/ | [f_a]d/^c/d/B/ | [=eg]d/c/d/B/ | %182
 [f_a]c/B/c/_A/ | [f_a]_c/B/c/_A/ |"_cresc." [f_a]B/_A/B/A/ | [f_a]B/_A/B/A/ |!mp! z2 B | %187
 c/B/_A/c/B/A/ | BEB | A/G/F/A/G/F/ | _A2 B/A/ | G/F/E/c/B/_A/ | G/F/E/c/B/_A/ | G/F/E/F/G/_A/ | %194
 B/c/_d/B/e/d/ | c/B/_A/c/B/A/ | BEB | A/G/F/A/G/F/ | _A2 B/A/ | G/F/E/F/G/_A/ | B/c/_d/f/e/d/ | %201
 c/B/_A/c/B/A/ | eBe | A/G/F/G/A/B/ | c/d/e/g/f/e/ | d/c/B/d/c/B/ | [cf][Fc][cf] | =B/A/G/A/B/c/ | %208
 d/e/f/_a/g/f/ | e/d/c/e/d/c/ | [dg][Gd][dg] | [^cg]/=B/[A=e]/c/[Bg]/A/ | [d^f]A[df] | %213
 =B/A/G/B/A/G/ | _B/A/G/B/A/G/ | A/G/^F/A/G/F/ |"_cresc." A/G/=F/A/G/F/ | G/F/=E/G/F/E/ | %218
 G/F/_E/G/F/E/ |[K:bass] !>![^F,A,D^F] z2 | z3 |[K:treble] [ce][Ac]/[GB]/[Ac]/[^FA]/ | %222
 [Ec][CEA][A,C^F] | [Bd][GB]/[^FA]/[GB]/[DG]/ | [B,B][G,B,G][G,B,D] | ^C/D/=E/C/D/E/ | %226
 [B,^C][B,G][B,C] | D/=E/^F/G/A/B/ | c/=B/c/e/d/c/ | [=Bf_a][df]/[ce]/[df]/[Bd]/ | [_Af][Fd][D=B] | %231
 [eg][ce]/[=Bd]/[ce]/[Gc]/ | [Ge][Ec][CG] | ^c/d/=e/c/d/e/ | [=Ec][GBg][Ec] | [^Fd]/G/A/F/G/A/ | %236
 D/=E/^F/D/E/F/ |{/g'} c'/d'/e'/d'/c'/b/ |{/c'} a/b/c'/b/a/g/ | f/g/a/g/f/e/ | d/e/f/e/d/c/ | %241
{/f} B/c/d/c/B/A/ |{/b} G/A/B/A/G/F/ | E/F/G/F/E/D/ |{/e} C/D/E/D/C/B,/ |{/e} A,/C/E/D/C/B,/ | %246
{/a} A,/B,/C/B,/A,/G,/ |{/c} A,/B,/C/B,/A,/G,/ |{/^f} A,/B,/C/B,/A,/G,/ |!f! !>![cegc']3 | %250
 [^FAc^f]2 z | z3 | z3 |!p! !>!D/E/=E/F/^F/G/ | !>!^G/A/B/=B/c/^c/ | !>!d/e/=e/f/^f/g/ | %256
 !>!^g/a/b/=b/c'/^c'/ | [bd'][ac']/[gb]/[ac']/[^fb]/ | [gbd'][dgb][Bdg] | %259
 [db][ca]/[Bg]/[ca]/[A^f]/ |{/d'} [dg][Bdd'][GBg] |{/d'} b[ad']/[dg]/[ad']/[d^f]/ | %262
 [gd'][ad']/[dg]/[ad']/[d^f]/ | [gd'][ad']/[dg]/[ad']/[d^f]/ |{/d'} b/[ag']/[gb]/[=bg']/[gc']/d'/ | %265
 [gc'][fg]/e/[fg]/[db]/ | [EGe][CGc][G,CG] | ed/c/d/=B/ | [CEc][CEG][CE] | %269
 [gbd'g'][=Bf]/[Ge]/[Bf]/[Gd]/ | [gbd'g'][=Bf]/[Ge]/[Bf]/[Gd]/ | [gbd'g'][=Bf]/[Ge]/[Bf]/[Gd]/ | %272
{/g'} [gbd']!wedge![GB]/!wedge![Bd]/!wedge![dg]/!wedge![gb]/ | [=EGd]3 | [EG^c] z G | [=EGd]3 | %276
 [=EG^c] z G | [=EGd]3 | [=EG^c] z [c^c'] | [dd'][c=c'][Bb] |{/b} [Aa][Gg][^F^f] | [dd']3 | %282
 [^c^c'] z [gg'] | [dd']3 | [^c^c'] z [gg'] | [dd']3 | [^c^c'] z c | d=c/e/d/B/ | %288
 (3E/F/E/d/B/A/c/ | B/G/(3C/D/C/B/G/ | F/_A/G/E/F/A/ | G/E/D/F/E/C/ | D/F/E[dd'] | [dd'] z [gg'] | %294
 [ae'g'] z [ad'^f'] | [g=bd'g'][G=Bd][gbg'] | [gc'=e'g'][Gc=e][gc'e'g'] | [gd'g'][Gd][gd'g'] | %298
 [ga=e'g'][GA=e][gae'g'] | [^fad'^f'][^FAd][fad'f'] | [g=bd'g'][G=Bd][gc'=e'g'] | %301
 [g=bd'g'][G=Bd][gc'=e'g'] | [g=bd'g'][G=Bd] z | z2 [g=bd'g'] | [gc'=e'g'][Gc=e][gc'e'g'] | %305
 [gd'g'][Gd][gd'g'] | [ga=e'g'][GA=e][gae'g'] | [^fad'^f'][^FAd][fad'f'] | %308
 [g=bd'g'][G=Bd][gc'=e'g'] | [g=bd'g'][G=Bd][gc'=e'g'] | [g=bd'g'] z2 | z2 [fad'f'] | %312
 [=e=b=e'][cc'][fbd'f'] | [=e=b=e'][cc'][fbd'f'] | [=ec'=e'] z2 | z2 [=eg_b=e'] | %316
 [=egb=e'][Geg][egbe'] | [=egb=e'][Geg][egbe'] | [gb=e'] z2 | z2 [_b^c'=e'g'] | %320
 [_b^c'=e'g']g[_bc'e'g'] | [_b^c'=e'g']g[_bc'e'g'] | .[_b^c'=e'g']3 | z2 =e | .[DA]2 A | d2 d | %326
 .[CG]2 G | [Ac] z c' |{bc'} [dd'][cc'][Bb] | [Aa][Gg][^F^f] |{/g} B/A/G/B/A/G/ | ^F/E/D/F/E/D/ | %332
{/d} _A/F/=E/A/F/E/ | =E/D/C/E/D/C/ | B/4A/4B/4A/4B/4A/4B/4A/4B/4A/4G/4A/4 |{Bc} dcB | AG^F | %337
 G/B/c/d/=e/^f/ | !>!g/d/c/B/!>!g/B/ | !>!c/_A/G/A/c/A/ | !>![Bf]/_A/G/A/!>!f/A/ | %341
"_cresc." !>!B/G/^F/G/B/G/ | !>!e/G/^F/G/!>!e/G/ |!f! ^f/a/c'/b/a/g/ | ^f/e/d/c/B/A/ | %345
 G/B/c/d/=e/^f/ |!mp! !>!g/d/c/B/!>!g/B/ | !>!c/_A/G/A/c/A/ | !>![Bf]/_A/G/A/!>!f/A/ | %349
"_cresc." !>!B/G/^F/G/B/G/ | !>!e/G/^F/G/!>!e/G/ |!mf! ^f/a/c'/b/a/g/ | ^f/e/d/c/B/A/ | %353
 G/^F/[GB]/A/[Bd]/G/ |{^c=e} [eg]/d/[ce]/B/[Ac]/G/ | d/B/A/B/=c/d/ | %356
"_dim." [c_e]/d/[Ac]/e/[^Fd]/c/ | [GB]/^F/[GB]/A/[Bd]/G/ |{^c=e} [cg]/d/[ce]/B/[Ac]/G/ | %359
 d/B/A/B/=c/d/ | [c_e]/d/[Ac]/e/[^Fd]/c/ | B/G/A/B/c/d/ |!p! e/d/c/e/d/c/ | %363
"_cresc." [B^f]/G/A/B/c/d/ | [eg]/d/c/e/d/c/ | d/c/B/d/c/B/ | c/B/A/c/B/A/ | B/A/G/B/A/G/ | %368
 A/G/^F/A/G/F/ |!f! !>!G/D/^C/D/=E/^F/ | !>!B/^F/G/A/B/c/ | !>!d/B/c/d/=e/^f/ | !>!g/d/=e/^f/g/a/ | %373
 !>!G/D/^C/D/=E/^F/ | !>!B/^F/G/A/B/c/ | !>!G/D/^C/D/=E/^F/ | !>!B/^F/G/A/B/c/ | %377
 !>![Gg]/[Cd]/[^B,^c]/[Cd]/[D=e]/[^E^f]/ | !>![Bb]/[^F^f]/[Gg]/[Aa]/[Bb]/[cc']/ | %379
 !>![Dd]/[B,B]/[Cc]/[Dd]/[=E=e]/[^F^f]/ | !>![Gg]/[Dd]/[=E=e]/[^F^f]/[Gg]/[Aa]/ | %381
 !>![Bb]/[Aa]/[Gg]/[Aa]/[Bb]/[cc']/ | [eg][df]/[eg]/[df]/[Ac]/ | [ce][Gc][EG] | %384
 [df][ce]/[df]/[ce]/[GB]/ | [Bd][FB][DF] | [ge'g'][d'f']/[e'g']/[d'f']/[ac']/ | %387
 [gc'e'][egc'][ceg] | [fd'f'][c'e']/[d'f']/[c'e']/[gb]/ | [fbd'][dfb][Bdf] | %390
!8vb(! !>![^F,^F]/[=E,=E]/[D,D]/[E,E]/[F,F]/[G,G]/ | %391
 !>![A,A]/[G,G]/[^F,^F]/[G,G]/[A,A]/[B,B]/!8vb)! |"_dim." !>![Cc]/[B,B]/[A,A]/[B,B]/[Cc]/[Dd]/ | %393
 !>![Ee]/[Dd]/[Cc]/[Dd]/[=E=e]/[^F^f]/ | !>![Gg]/[^F^f]/[=E=e]/[Ff]/[Gg]/[Aa]/ | %395
 !>![Bb]/[Aa]/[Gg]/[Aa]/[Bb]/[cc']/ |!mp! [gbd']c'/b/c'/a/ | !wedge![gb]!wedge![dg]!wedge![Bd] | %398
 [fb]a/g/a/^f/ | !wedge![Bg]!wedge![Bd]!wedge![GB] | [Bd]A/G/A/^F/ | GA/G/A/^F/ | GA/G/A/^F/ | %403
 !wedge![=EG]/!wedge![FA]/!wedge![GB]/!wedge![A^c]/!wedge![Bd]/!wedge![c=e]/ | [dfa]g/f/g/=e/ | %405
 !wedge![df]!wedge![Ad]!wedge![FA] | [df]=e/d/e/^c/ | !wedge![FAd]!wedge![FA]!wedge!F | %408
 [FA]=E/D/E/^C/ | [DA]=E/D/E/^C/ | %410
 !wedge![B,D]/!wedge![C=E]/!wedge![DF]/!wedge![EG]/!wedge![FA]/!wedge![GB]/ | %411
 !wedge![Ac]/!wedge![Bd]/!wedge![c=e]/!wedge![df]/!wedge![eg]/!wedge![fa]/ | %412
!mf! [gbd'][ac']/[gb]/[ac']/[^fa]/ | !wedge![gb]!wedge![dg]!wedge![Bd] | [dbd']a/g/a/^f/ | %415
 [Bdg][Bd][GB] | [Bd][Ac]/[GB]/[Ac]/[^FB]/ | [GB][Ac]/[GB]/[Ac]/[^FB]/ | %418
 [GB][Ac]/[GB]/[Ac]/[^FB]/ | %419
 !wedge![EG]/!wedge![FA]/!wedge![GB]/!wedge![Ac]/!wedge![Bd]/!wedge![ce]/ | %420
 [df][Bd]/[Ac]/[Bd]/[^G=B]/ | [Gg][Ee][Cc] | (3c/4d/4c/4=B/4c/4[Bd][FB] | %423
 !wedge![Ec]/!wedge![GB]/!wedge![Ac]/!wedge![=Bd]/!wedge![ce]/!wedge![df]/ | %424
 [ee'][cc']/[Bb]/[cc']/[Aa]/ | [ff'][dd'][Bb] | [ee'][cc']/[Bb]/[cc']/[Bb]/ | [ff'][dd'][Bb] | %428
 !>![gg'][b_d']/[ac']/[bd']/[gb]/ | !>![ff'][b_d']/[ac']/[bd']/[gb]/ | %430
 !>![=e=e'][b_d']/[ac']/[bd']/[gb]/ | %431
 !wedge![=EG]/!wedge![GB]/!wedge![B_d]/!wedge![df]/!wedge![=eg]/!wedge![gb]/ | %432
 !>![gg'][b_d']/[ac']/[bd']/[gb]/ | !>![ff'][b_d']/[ac']/[bd']/[gb]/ | %434
 !>![=e=e'][b_d']/[ac']/[bd']/[gb]/ | %435
 !wedge![GB]/!wedge![B_d]/!wedge![c=e]/!wedge![eg]/!wedge![gb]/!wedge![b_d']/ | f'!p!g/_e/d/f/ | %437
 (3g/a/g/d/f/e/c/ | B/d/(3e/f/e/B/d/ | c/A/G/B/(3c/d/c/ | G/B/_A/F/E/G/ | (3_A/B/A/E/G/[Ec]/_G/ | %442
"_cresc." f/F/E/D/E/F/ | %443
 !wedge![DF]/!wedge![GB]/!wedge![Bd]/!wedge![df]/!wedge![gb]/!wedge![bd']/ |!f! f'e'/g'/f'/d'/ | %445
 (3b/c'/b/f'/d'/c'/e'/ | d'/b/(3g/a/g/d'/b/ | a/c'/b/g/(3f/g/f/ | b/g/f/_a/g/e/ | (3e/f/e/g/e/c' | %450
 !^![^F^f]3 |!<(! [Gg]2 [cc']!<)! | !^![^F^f]3 | [Gg]2 [cc'] | [_G_g]3 | %455
 !wedge![Ff]!wedge![Aa]!wedge![Bb] | !wedge![Gg]!wedge![Ee]!wedge![Ff] | [Dd]2!f! [cc'] | %458
 [_d^f]/!mp!c/B/c/B/c/ | [_dg]/c/B/c/[Bc']/c/ | [_d^f]/!mp!c/B/c/B/c/ | [_dg]/c/B/c/[Bc']/c/ | %462
 [_d_g]/!mp!c/B/c/B/c/ | !wedge![Ff]!wedge![Aa]!wedge![Bb] | !wedge![Gg]!wedge![Ee]!wedge![Ff] | %465
 [B,B]2 [F,F] | G/F/E/G/F/E/ | FB,F | =E/D/C/E/D/C/ | E2 F/E/ | D/C/B,/G/F/E/ | D/C/B,/G/F/E/ | %472
 D/C/B,/C/D/E/ | F/G/_A/F/B/A/ | G/F/E/G/F/E/ | FB,F | =E/D/C/E/D/C/ | E2 F/E/ | D/C/B,/G/F/E/ | %479
 D/C/B,/G/F/E/ |!8vb(! [D,D]/[C,C]/[B,,B,]/[C,C]/[D,D]/[E,E]/ | %481
 [F,F]/[G,G]/[_A,_A]/[D,D]/[G,G]/[F,F]/ | [=E,=E]/[D,D]/[C,C]/[_A,_A]/[G,G]/[F,F]/ | %483
 [=E,=E]/[D,D]/[C,C]/[_A,_A]/[G,G]/[F,F]/ | [=E,=E]/[D,D]/[C,C]/[D,D]/[E,E]/[F,F]/ | %485
 [G,G]/[A,A]/[_B,_B]/[=E,=E]/[A,A]/[G,G]/ | [^F,^F]/[=E,=E]/[D,D]/[B,B]/[A,A]/[G,G]/ | %487
 [^F,^F]/[=E,=E]/[D,D]/[B,B]/[A,A]/[G,G]/ | [^F,^F]/[=E,=E]/[D,D]/[E,E]/[F,F]/[G,G]/ | %489
 [A,A]/[G,G]/[^F,^F]/[G,G]/[A,A]/[B,B]/!8vb)! |"_dim." [Cc]/[DB]/[EA]/[GB]/[Bc]/d/ | %491
 e/d/c/d/=e/^f/ | g/^f/=e/f/g/a/ |!p! b/a/g/a/b/c'/ | [bd'][ac']/[gb]/[ac']/[^fa]/ | [gb][dg][Bd] | %496
 [Bd][Ac]/[GB]/[Ac]/[^FA]/ | [GB][DG][B,D] | [EG][GB]/[EG]/[Bd]/[EG]/ | [eg][gb][bd'] | %500
 [gbd'g'] z2 | [GBdg] z2 | [G,G] z2 | z3 |] %504
V:2
 [B,DG][C^F]/[A,D]/[CF]/[A,A]/ | [G,DG][G,DG][G,DG] | [B,DG][C^F]/[CD]/[CF]/[CD]/ | %3
 [B,DG][B,DG][B,D] |[K:bass] [G,B,]2 [E,G,] | [G,B,]2 [E,G,] | [G,B,]2 [E,G,] | %7
 [G,B,D][B,D][G,B,] | [D,F,]=E,/G,/E,/G,/ | [D,F,A,][D,F,A,][D,F,A,] | [F,A,D][F,^C]/A,/[F,C]/A,/ | %11
 [F,A,D][F,A,D][F,A,D] | [D,A,]G,/F,/G,/=E,/ | [D,A,]G,/F,/G,/=E,/ |"_cresc." [D,F,] z z | z3 | %16
 [G,,B,,D,G,][B,,D,]/[G,,G,]/[B,,D,]/[G,,G,]/ | [B,,D,G,B,][B,,D,G,B,][B,,D,G,B,] | %18
 [G,,B,,D,]B,,/[G,,D,]/B,,/[G,,D,]/ | [B,,D,G,][B,,D,G,][B,,D,G,] | [G,,D,G,][^F,A,]/B,/[F,A,]/C/ | %21
 [G,,D,G,][^F,A,]/B,/[F,A,]/C/ | [G,,D,G,][^F,A,]/B,/[F,A,]/C/ | [G,,D,][F,,F,][E,,E,] | %24
 [D,,D,][D,F,_A,]/C,/[D,F,A,]/C,/ | [C,E,][A,,C,][C,E,] | [F,,F,][D,,D,][G,,G,] | %27
 [C,,C,][C,C][G,,G,] | [C,,C,][_G,A,CE]/E,/[G,A,CE]/E,/ | [D,,D,][F,,F,][D,,D,] | %30
 [C,,C,][_G,A,CE]/E,/[G,A,CE]/E,/ | [D,,D,][F,,F,][D,,D,] | %32
 !>![G,,=E,G,][E,B,]/[D,A,]/[E,B,]/[G,_D]/ | !>![F,,D,F,][D,B,]/[C,A,]/[D,B,]/[F,_D]/ | %34
 !>![G,,=E,G,][E,B,]/[D,A,]/[E,B,]/[G,_D]/ | !>![G,,_D,G,][C,C][B,,B,] | %36
 !>![G,,=E,G,][E,B,]/[D,A,]/[E,B,]/[G,_D]/ | !>![F,,D,F,][D,B,]/[C,A,]/[D,B,]/[F,_D]/ | %38
 !>![G,,=E,G,][E,B,]/[D,A,]/[E,B,]/[G,_D]/ | [=E,G,][_D,F,]/[C,E,]/[D,F,]/[B,,D,]/ | %40
 [A,F][B,D][^F,C] | [G,B,][^F,C][G,B,] | [G,B,][^F,C][G,B,] | [D,A,][E,G,][D,A,] | %44
 [E,G,][=B,,F,][C,E,] | [=B,,F,][C,E,][E,,E,] | .[F,,F,]2 [F,,,F,,] | [B,,,B,,][D,,D,][B,,,B,,] | %48
 [A,,,A,,][A,,,A,,][B,,,B,,] | [A,,,A,,][B,,,B,,][^F,,^F,] | [G,,G,][^F,,^F,][G,,G,] | %51
 [D,,D,][E,,E,][D,,D,] | [E,,E,][=B,,,=B,,][C,,C,] | [=B,,,=B,,][C,,C,][E,,E,] | %54
 [_D,_D]/!mp![C,C]/[B,,B,]/[C,C]/[B,,B,]/[C,C]/ | [E,,E,]2 [C,C] | %56
 [_D,_D]/!mp![C,C]/[B,,B,]/[C,C]/[B,,B,]/[C,C]/ | [E,,E,]2 [C,C] | %58
 [_D,_D]/[C,C]/[B,,B,]/[C,C]/[B,,B,]/[C,C]/ | [E,,E,][E,,E,][D,,D,] | [E,,E,][C,,C,][F,,F,] | %61
 [B,,,B,,][D,,D,][=E,,=E,] | [^F,B,_D^F]3 |!f! [G,G]2 [C,C] | [^F,B,_D^F]3 |!f! [G,G]2 [C,C] | %66
 [_G,B,_G]3 | [F,,F,][A,,A,][B,,B,] | [G,,G,][E,,E,][F,,F,] | B,,,/B,,/B,,,/B,,/B,,,/B,,/ | %70
 [B,,G,]/F,/[B,,E,]/G,/[B,,F,]/E,/ | [B,,D,F,][B,,D,F,][B,,D,F,] | %72
 [G,,=E,]/D,/[G,,C,]/E,/[G,,D,]/C,/ | [G,,E,]/D,/C,/D,/F,/E,/ | [G,,D,]/C,/B,,/[G,,G,]/F,/E,/ | %75
 [G,,D,]/C,/B,,/[G,,G,]/F,/E,/ | [G,,D,]/C,/B,,/[G,,C,]/D,/E,/ | %77
 [F,,F,]/G,/[_A,,_A,]/F,/[B,,B,]/A,/ | [B,,G,]/F,/[B,,E,]/G,/[B,,F,]/E,/ | %79
 [B,,D,F,][B,,D,F,][B,,D,F,] | [G,,=E,]/D,/[G,,C,]/E,/[G,,D,]/C,/ | [G,,E,]/D,/C,/D,/F,/E,/ | %82
 [G,,D,]/C,/B,,/[G,,G,]/F,/E,/ | [G,,D,]/C,/B,,/[G,,G,]/F,/E,/ | .[B,,,B,,]3 | z2 [B,,,B,,] | %86
 !>![C,,C,]2 [F,,F,] | !>![C,,C,]2 [F,,F,] | !>![C,,C,]2 z | z2 [A,,,A,,] | !>![D,,D,]2 [A,,,A,,] | %91
 !>![D,,D,]2 [A,,,A,,] | !>![D,,D,]2 z | z3 | z3 | z3 | z3 | z3 | [B,DG][C^F]/[A,D]/[CF]/[A,A]/ | %99
 [G,DG][G,DG][G,DG] | [B,DG][C^F]/[CD]/[CF]/[CD]/ | [B,DG][B,DG][B,D] |[K:bass] [G,B,]2 [E,G,] | %103
 [G,B,]2 [E,G,] | [G,B,]2 [E,G,] | [G,B,D][B,D][G,B,] | [D,F,]=E,/G,/E,/G,/ | %107
 [D,F,A,][D,F,A,][D,F,A,] | [F,A,D][F,^C]/A,/[F,C]/A,/ | [F,A,D][F,A,D][F,A,D] | %110
 [D,A,]G,/F,/G,/=E,/ | [D,A,]G,/F,/G,/=E,/ | [D,A,]G,/F,/G,/=E,/ |"_cresc." [D,F,A,] z2 | %114
 [A,,A,][=E,,=E,]/[D,,D,]/[E,,E,]/[^C,,^C,]/ | [=E,,=E,][^C,,^C,][A,,,A,,] | %116
 [A,,A,][F,,F,]/[=E,,=E,]/[F,,F,]/[D,,D,]/ | [F,,F,][D,,D,][A,,,A,,] | %118
 [A,,A,][F,,F,]/[=E,,=E,]/[F,,F,]/[D,,D,]/ | [F,,F,][D,,D,][A,,,A,,] | %120
 [A,,A,][G,,G,]/[F,,F,]/[G,,G,]/[=E,,=E,]/ | [G,,G,][=E,,=E,][A,,,A,,] | %122
"_cresc." [G,,G,][=E,,=E,][A,,,A,,] | [A,,A,][F,,F,][A,,,A,,] | [A,,A,][^F,,^F,][A,,,A,,] | %125
 [A,,A,][G,,G,][A,,,A,,] |!ff! [A,,A,]/[D,F,]/[A,,A,]/[^D,^F,]/[A,,A,]/[=E,G,]/ | %127
 [A,,A,]/[G,B,]/[A,,A,]/[^F,A,]/A,,/[G,A,=E]/ | [D,,D,][K:treble]^fg | cBG | ^F^CD | %131
[K:bass] B,A,G, | ^F,F,G, | A,B,^C/=E/ | D/A,/G,/B,/A,/^F,/ | =E,/G,/^F,/D,/^C,/E,/ | %136
 [D,,D,][A,,A,]/[G,,G,]/[A,,A,]/[^F,,^F,]/ | [A,,A,][^F,,^F,][D,,D,] | %138
 [D,D][B,,B,]/[A,,A,]/[B,,B,]/[G,,G,]/ | [B,,B,][G,,G,][D,,D,] | %140
 [D,D][B,,B,]/[A,,A,]/[B,,B,]/[G,,G,]/ | [B,,B,][G,,G,][D,,D,] | %142
 [D,D][C,C]/[B,,B,]/[C,C]/[A,,A,]/ | [C,C][A,,A,][D,,D,] |"_cresc." [C,C][A,,A,][D,,D,] | %145
 [D,D][B,,B,][D,,D,] | [D,D][=B,,=B,][D,,D,] | [D,D][C,C][D,,D,] | %148
 [D,D]/[G,B,]/[D,D]/[^G,=B,]/[D,D]/[A,C]/ | [D,D]/[CE]/[D,D]/[=B,E]/[D,D]/[A,C]/ | %150
 [G,,G,][K:treble]Bc | _AGF | E^FG | EDC | =B,B,C |[K:bass] _A,G,[G,,,G,,] | [C,,C,]C/E/D/=B,/ | %157
 A,/C/=B,/G,/^F,/A,/ | [G,,G,][D,,D,]/[C,,C,]/[D,,D,]/[=B,,,=B,,]/ | [E,,E,][C,,C,][G,,,G,,] | %160
 [_G,,_G,][E,,E,]/[D,,D,]/[E,,E,]/[C,,C,]/ | [F,F][D,D][B,,B,] | %162
 [E,,E,][B,,,B,,]/[_A,,,_A,,]/[B,,,B,,]/[G,,,G,,]/ | [B,,B,][G,,G,][E,,E,] | %164
 [B,,B,][G,,G,]/[^F,,^F,]/[G,,G,]/[=E,,=E,]/ | [A,,A,][^F,,^F,][D,,D,] | %166
 [G,,G,][D,,D,]/[C,,C,]/[D,,D,]/[B,,,B,,]/ | [G,,G,][E,,E,][B,,,B,,] | %168
 [_D,_D][B,,B,]/[A,,A,]/[B,,B,]/[G,,G,]/ | [C,C][A,,A,][F,,F,] | [B,DF]B,,,/B,,/B,,,/B,,/ | %171
[K:treble] [A,E_G][K:bass]B,,,/B,,/B,,,/B,,/ |[K:treble] [A,E_G][K:bass]B,,,/B,,/B,,,/B,,/ | %173
[K:treble] [B,CE_G][K:bass]B,,,/B,,/B,,,/B,,/ |[K:treble] [B,DF][K:bass]B,,,/B,,/B,,,/B,,/ | %175
[K:treble] [B,E_G][K:bass]B,,,/B,,/B,,,/B,,/ |[K:treble] [B,E_G][K:bass]B,,,/B,,/B,,,/B,,/ | %177
[K:treble] [B,CE_G][K:bass]B,,,/B,,/B,,,/B,,/ |[K:treble] [B,DF][K:bass]B,,,/B,,/B,,,/B,,/ | %179
 [B,,,B,,]B,,/B,,,/B,,/F,,/ | B,,,/B,,/B,,,/B,,/B,,,/B,,/ | [B,,,B,,]B,,B,, | [F,,,F,,]2 z | %183
 [E,,E,]2 z | [D,,D,]2 z | [B,,,B,,]2 z | [E,,E,][E,G,B,][G,B,E] | [_A,,_A,][E,A,C][A,CE] | %188
 [G,,G,][E,G,B,][E,G,B,] | [F,,F,][F,A,CE][F,A,CE] | [B,,,B,,][F,B,D][F,B,D] | %191
 [E,,E,][E,G,B,][E,_A,C] | [E,,E,][E,G,B,][E,_A,C] | [E,,E,]E,/F,/G,/_A,/ | B,/C/_D/B,/[E,,E,] | %195
 [_A,,_A,][E,A,C][A,CE] | [G,,G,][E,G,B,][E,G,B,] | [F,,F,][F,A,CE][F,A,CE] | %198
 [B,,,B,,][F,B,D][F,B,D] | [E,,E,]E,/F,/G,/_A,/ | B,/C/_D/F/[E,,E,] | [_A,,,_A,,][E,_A,C][E,A,C] | %202
 [_G,,,_G,,][E,_G,B,][E,G,B,] | [F,,F,] z2 | z2 [F,,F,] | [B,,B,][F,B,D][F,B,D] | %206
 [_A,,_A,][F,A,C][F,A,C] | [G,,G,] z2 | z2 [G,,G,] | [C,C][G,CE][G,CE] | [D,D]/C/B,/D/C/B,/ | %211
 [A,,A,][=E,A,^C][A,C=E] | [D,=C]/B,/A,/C/B,/A,/ | [G,,G,]D,G, | [G,,G,] z2 | [^F,,^F,] z2 | %216
 [=F,,=F,] z2 | [=E,,=E,] z2 | [_E,,_E,] z2 |!mf! !>![D,,D,]D,,/D,/D,,/D,/ | D,,D,,D,, | %221
 D,,D,,/D,/D,,/D,/ | D,,D,,D,, | D,,D,,/D,/D,,/D,/ | D,,D,,D,, | D,,D,,/D,/D,,/D,/ | %226
 !arpeggio![D,,=E,]!arpeggio![D,,G,]!arpeggio![D,,E,] | [^F,A,]D,,/D,/D,,/D,/ | D,,D,,D,, | %229
 D,,D,,/D,/D,,/D,/ | D,,D,,D,, | D,,D,,/D,/D,,/D,/ | D,,D,,D,, | D,,D,,/D,/D,,/D,/ | D,,D,,D,, | %235
 D,,D,,/D,/D,,/D,/ | D,,D,,D,, | D,,B,/[A,,A,]/G,/F,/ | D,,G,/F,/[A,,E,]/D,/ | %239
 D,,E,/D,/[A,,C,]/B,,/ | [D,,D,][K:treble]A/G/F/E/ |[K:bass] [D,,D,][K:treble]F/E/D/C/ | %242
[K:bass] [D,,D,]D/C/B,/A,/ | [D,,D,]B,/A,/G,/F,/ | [D,,D,]G,/F,/E,/D,/ | [D,,D,]G,/F,/E,/D,/ | %246
 .[D,,D,]2 [E,,E,] |"_cresc." [D,,D,]2 [E,,E,] | [D,,D,]2 [E,,E,] | %249
 !>![D,,D,]/E,,/=E,,/F,,/!>!^F,,/G,,/ | !>!^G,,/A,,/B,,/=B,,/!>!C,/^C,/ | %251
!>(! !>!D,/E,/=E,/F,/!>!^F,/G,/ | !>!^G,/A,/B,/=B,/!>!C/^C/!>)! | z3 | z3 | z3 | z3 | %257
 [G,,,G,,][G,A,F]/[CD]/[G,A,F]/[CA]/ | [G,B,DG][G,B,DG][G,B,DG] | %259
 [G,,G,][G,A,^F]/[CD]/[G,A,F]/[CD]/ | [G,B,DG][G,B,DG][G,B,DG] | [G,B,D][G,C]/B,/[G,C]/A,/ | %262
 [G,B,D][G,C]/B,/[G,C]/A,/ |"_cresc." [G,B,D][G,C]/B,/[G,C]/A,/ | %264
 [B,,G,B,]/A,/B,/[F,=B,]/[E,C]/[D,D]/ |!f! [G,,C,][C,D,]/F,/[C,D,]/F,/ | [C,E,][C,E,][C,E,] | %267
 [C,E,][C,D,]/F,/[C,D,]/F,/ | [C,E,][C,E,][C,E,] | [C,,E,,C,][C,D,]/F,/[C,D,]/F,/ | %270
 [C,,E,,C,][C,D,]/F,/[C,D,]/F,/ | [C,,E,,C,][C,D,]/F,/[C,D,]/F,/ | %272
!>(! [C,E,C]/[G,,G,]/[E,,E,]/[C,,C,]/[E,,E,]/[G,,G,]/!>)! |!mf! [B,,B,]/A,/G,/A,/G,/A,/ | %274
 B,/A,/G,/A,/G,/A,/ | [B,,B,]/A,/G,/A,/G,/A,/ | B,/A,/G,/A,/G,/A,/ | [B,,B,]/A,/G,/A,/G,/A,/ | %278
 B,/A,/G,/A,/[G,,G,]/A,/ | [^F,,^F,]/A,/[C,C]/E/[B,,B,]/D/ | [C,C]/E/[B,,B,]/D/[A,,A,]/D/ | %281
 [G,,G,]/A,/B,/A,/B,/A,/ | G,/A,/B,/A,/B,/A,/ | [G,,G,]/A,/B,/A,/B,/A,/ | G,/A,/B,/A,/B,/A,/ | %285
 [G,,G,]/A,/B,/A,/B,/A,/ | G,/A,/B,/A,/B,/A,/ | [D,A,D][E,B,_E][D,A,D] | [^F,C][G,B,][D,A,] | %289
 [E,G,B,][D,A,][E,G,B,] | [=B,,F,_A,][C,E,G,](3[B,,F,A,]/B,/A,/ | [C,E,G,][G,,D,F,][_A,,C,E,] | %292
 [G,,D,F,][_A,,C,E,]/C/[^F,,D,]/C/ | [G,,B,,D,]/B,/[A,,A,]/G,/[A,,A,]/B,/ | [E,E][C,C][D,D] | %295
 [D,G,=B,D][D,,D,][D,D] | [G,C=E]/[D,D]/[C,C]/[=E,E]/[D,D]/[C,C]/ | [D,G,D][D,G,D][D,G,D] | %298
 [=E,G,^C]/[=B,,=B,]/[A,,A,]/[C,C]/[B,,B,]/[A,,A,]/ | [=C,=C]2 [D,D]/[C,C]/ | %300
 [=B,,=B,]/[A,,A,]/[G,,G,]/[=E,=E]/[D,D]/[C,C]/ | [=B,,=B,]/[A,,A,]/[G,,G,]/[=E,=E]/[D,D]/[C,C]/ | %302
 [=B,,=B,]/[A,,A,]/[G,,G,]/[A,,A,]/[B,,B,]/[C,C]/ | [D,D]/[=E,=E]/[F,F]/[D,D]/[G,G]/[F,F]/ | %304
 [=E,=E]/[D,D]/[C,C]/[E,E]/[D,D]/[C,C]/ | [D,G,D][D,G,D][D,G,D] | %306
 [^C,^C]/[=B,,=B,]/[A,,A,]/[=C,C]/[B,,B,]/[A,,A,]/ | [=C,=C]2 [D,D]/[C,C]/ | %308
 [=B,,=B,]/[A,,A,]/[G,,G,]/[=E,=E]/[D,D]/[C,C]/ | [=B,,=B,]/[A,,A,]/[G,,G,]/[=E,=E]/[D,D]/[C,C]/ | %310
 [=B,,=B,]/[C,C]/[D,D]/[=E,=E]/[F,F]/[G,G]/ |!8va(! [_A,_A]/[G,G]/[F,F]/[=A,A]/[G,G]/[F,F]/ | %312
 [=E,=E]/[D,D]/[C,C]/[_A,_A]/[G,G]/[F,F]/ | [=E,=E]/[D,D]/[C,C]/[_A,_A]/[G,G]/[F,F]/ | %314
 [=E,=E]/[D,D]/[_E,_E]/[F,F]/[G,G]/[A,A]/ | [B,B]/[A,A]/[G,G]/[B,B]/[A,A]/[G,G]/ | %316
 [B,B]/[A,A]/[G,G]/[B,B]/[A,A]/[G,G]/ | [B,B]/[A,A]/[G,G]/[B,B]/[A,A]/[G,G]/ | %318
 [B,B]/[A,A]/[G,G]/[^F,^F]/[G,G]/[A,A]/ | [B,B]/[A,A]/[G,G]/[B,B]/[A,A]/[G,G]/ | %320
 [B,B]/[A,A]/[G,G]/[B,B]/[A,A]/[G,G]/ | [B,B]/[A,A]/[G,G]/[B,B]/[A,A]/[G,G]/ | %322
"_dim." [B,B]/[A,A]/[G,G]/[^F,^F]/[G,G]/[A,A]/ | [B,B]/[A,A]/[G,G]/[B,B]/[A,^CA]/[G,G]/ | %324
 [^F,^F]/[=E,=E]/[=F,D]/[B,F]/[CE]/[B,D]/!8va)! |[K:treble]!mp! [B,A]/G/F/A/[B,G]/F/ | %326
[K:bass] [C,C]C/=E/D/C/ | [F,,F,][K:treble]_G/B/A/G/ | D/F/[A,E]/F/[B,D]/F/ | B,/D/G/^F/G/A/ | %330
[K:bass] D/4^C/4D/4C/4D/4C/4D/4C/4D/4C/4=B,/4C/4 | [D,D] z [=C,=C] | %332
 C/4=B,/4C/4B,/4C/4B,/4C/4B,/4C/4B,/4A,/4B,/4 | [C,C] z2 | [F,,F,][K:treble]_E/G/F/E/ | %335
[K:bass] [B,,,B,,][K:treble][A,E]/F/[B,D]/F/ |[K:bass] [D,,D,][K:treble]B,/D/[A,C]/D/ | %337
[K:bass] [G,,,G,,][K:treble]DB, |[K:bass] [G,,G,] z [B,DG] | [G,,G,] z [_A,C] | [G,,G,] z [_A,CF] | %341
 [G,,G,] z [G,B,] | [G,,G,] z [G,B,E] | [G,,,G,,][A,,C,^F,][B,DG] | [G,,,G,,][A,,C,E,][^F,CD] | %345
 [G,,,G,,][G,,B,,][B,D] | [G,,G,] z [B,DG] | [G,,G,] z [_A,C] | [G,,G,] z [_A,CF] | %349
 [G,,G,] z [G,B,] | [G,,G,] z [G,B,E] | [G,,,G,,][A,,C,^F,][B,DG] | [G,,,G,,][A,,C,E,][^F,A,CD] | %353
 [G,B,D] z z | [G,,,G,,] z2 | [G,,,G,,][K:treble]^FA |[K:bass] [G,,,G,,] z [A,CD] | %357
 [G,,,G,,][G,B,D][G,B,D] |!mp! [G,,,G,,][G,^C=E][G,CE] | [G,,,G,,][^F,A,D][F,A,D] | %360
 [G,,,G,,][A,C][A,C] | [G,,,G,,][G,B,D][G,B,D] | [G,,,G,,]{^F,,A,,}C,/A,,/F,, | %363
 [G,,,G,,][G,B,D][G,B,D] | [G,,,G,,][G,C][A,C] | [G,,,G,,]{G,,C,}E,/C,/G,, | %366
 [G,,,G,,]{^F,,A,,}C,/A,,/F,, | [G,,,G,,]{G,,C,}E,/C,/G,, | [G,,,G,,]{^F,,A,,}C,/A,,/F,, | %369
 [G,,B,,D,G,]3/2 z3/2 | z3 | z3 | z3 | !>!G,/D,/^C,/D,/=E,/^F,/ | !>!B,/^F,/G,/A,/B,/C/ | %375
 !>![G,,G,]/[C,,D,]/[^B,,,^C,]/[C,,D,]/[=D,,=E,]/[^E,,^F,]/ | %376
 !>![B,,B,]/[^F,,^F,]/[G,,G,]/[A,,A,]/[B,,B,]/[C,C]/ | %377
 !>![G,,G,]/[C,,D,]/[^B,,,^C,]/[C,,D,]/[=D,,=E,]/[^E,,^F,]/ | %378
 !>![B,,B,]/[^F,,^F,]/[G,,G,]/[A,,A,]/[B,,B,]/[C,C]/ | %379
 !>![D,,D,]/[B,,,B,,]/[C,,C,]/[D,,D,]/[=E,,=E,]/[^F,,^F,]/ | %380
 !>![G,,G,]/[D,,D,]/[=E,,=E,]/[^F,,^F,]/[G,,G,]/[A,,A,]/ | %381
 !>![B,,B,]/[A,,A,]/[G,,G,]/[A,,A,]/[B,,B,]/[C,C]/ | [E,G,][D,F,]/[E,G,]/[D,F,]/[A,,C,]/ | %383
 [C,E,][G,,C,][E,,G,,] | [D,F,][C,E,]/[D,F,]/[C,E,]/[G,,B,,]/ | [B,,D,][F,,B,,][D,,F,,] | %386
 [G,EG][DF]/[EG]/[DF]/[A,C]/ | [G,CE][E,G,C][C,E,G,] | [F,DF][CE]/[DF]/[CE]/[G,B,]/ | %389
 [F,B,D][D,F,B,][B,,D,F,] | %390
!8vb(! !>![^F,,,^F,,]/[=E,,,=E,,]/[D,,,D,,]/[E,,,E,,]/[F,,,F,,]/[G,,,G,,]/ | %391
 !>![A,,,A,,]/[G,,,G,,]/[^F,,,^F,,]/[G,,,G,,]/[A,,,A,,]/[B,,,B,,]/!8vb)! | %392
 !>![C,,C,]/[B,,,B,,]/[A,,,A,,]/[B,,,B,,]/[C,,C,]/[D,,D,]/ | %393
 !>![E,,E,]/[D,,D,]/[C,,C,]/[D,,D,]/[=E,,=E,]/[^F,,^F,]/ | %394
 !>![G,,G,]/[^F,,^F,]/[=E,,=E,]/[F,,F,]/[G,,G,]/[A,,A,]/ | %395
!p! !>![B,,B,]/[A,,A,]/[G,,G,]/[A,,A,]/[B,,B,]/[C,C]/ | [B,DG][C^F]/[A,D]/[CF]/[A,A]/ | %397
 [G,DG][G,DG][G,DG] | [B,DG][C^F]/[CD]/[CF]/[CD]/ | [B,DG][B,DG][B,D] |[K:bass] [G,B,]2 [E,G,] | %401
 [G,B,]2 [E,G,] | [G,B,]2 [E,G,] | [G,B,D][B,D][G,B,] | [D,F,]=E,/G,/E,/G,/ | %405
 [D,F,A,][D,F,A,][D,F,A,] | [F,A,D][F,^C]/A,/[F,C]/A,/ | [F,A,D][F,A,D][F,A,D] | %408
 [D,A,]G,/F,/G,/=E,/ | [D,A,]G,/F,/G,/=E,/ |"_cresc." [D,F,] z z | z3 | %412
 [G,,B,,D,G,][B,,D,]/[G,,G,]/[B,,D,]/[G,,G,]/ | [B,,D,G,B,][B,,D,G,B,][B,,D,G,B,] | %414
 [G,,B,,D,]B,,/[G,,D,]/B,,/[G,,D,]/ | [B,,D,G,][B,,D,G,][B,,D,G,] | [G,,D,G,][^F,A,]/B,/[F,A,]/C/ | %417
 [G,,D,G,][^F,A,]/B,/[F,A,]/C/ | [G,,D,G,][^F,A,]/B,/[F,A,]/C/ | [G,,D,][F,,F,][E,,E,] | %420
 [D,,D,][D,F,_A,]/C,/[D,F,A,]/C,/ | [C,E,][A,,C,][C,E,] | [F,,F,][D,,D,][G,,G,] | %423
 [C,,C,][C,C][G,,G,] | [C,,C,][_G,A,CE]/E,/[G,A,CE]/E,/ | [D,,D,][F,,F,][D,,D,] | %426
 [C,,C,][_G,A,CE]/E,/[G,A,CE]/E,/ | [D,,D,][F,,F,][D,,D,] | %428
 !>![G,,=E,G,][E,B,]/[D,A,]/[E,B,]/[G,_D]/ | !>![F,,D,F,][D,B,]/[C,A,]/[D,B,]/[F,_D]/ | %430
 !>![G,,=E,G,][E,B,]/[D,A,]/[E,B,]/[G,_D]/ | !>![G,,_D,G,][C,C][B,,B,] | %432
 !>![G,,=E,G,][E,B,]/[D,A,]/[E,B,]/[G,_D]/ | !>![F,,D,F,][D,B,]/[C,A,]/[D,B,]/[F,_D]/ | %434
 !>![G,,=E,G,][E,B,]/[D,A,]/[E,B,]/[G,_D]/ | [=E,G,][_D,F,]/[C,E,]/[D,F,]/[B,,D,]/ | %436
 [A,F][B,D][^F,C] | [G,B,][^F,C][G,B,] | [G,B,][^F,C][G,B,] | [D,A,][E,G,][D,A,] | %440
 [E,G,][=B,,F,][C,E,] | [=B,,F,][C,E,][E,,E,] | .[F,,F,]2 [F,,,F,,] | [B,,,B,,][D,,D,][B,,,B,,] | %444
 [A,,,A,,][A,,,A,,][B,,,B,,] | [A,,,A,,][B,,,B,,][^F,,^F,] | [G,,G,][^F,,^F,][G,,G,] | %447
 [D,,D,][E,,E,][D,,D,] | [E,,E,][=B,,,=B,,][C,,C,] | [=B,,,=B,,][C,,C,][E,,E,] | %450
 [_D,_D]/!mp![C,C]/[B,,B,]/[C,C]/[B,,B,]/[C,C]/ | [E,,E,]2 [C,C] | %452
 [_D,_D]/!mp![C,C]/[B,,B,]/[C,C]/[B,,B,]/[C,C]/ | [E,,E,]2 [C,C] | %454
 [_D,_D]/[C,C]/[B,,B,]/[C,C]/[B,,B,]/[C,C]/ | [E,,E,][E,,E,][D,,D,] | [E,,E,][C,,C,][F,,F,] | %457
 [B,,,B,,][D,,D,][=E,,=E,] | [^F,B,_D^F]3 |!f! [G,G]2 [C,C] | [^F,B,_D^F]3 |!f! [G,G]2 [C,C] | %462
 [_G,B,_G]3 | [F,,F,][A,,A,][B,,B,] | [G,,G,][E,,E,][F,,F,] | B,,,/B,,/B,,,/B,,/B,,,/B,,/ | %466
 [B,,G,]/F,/[B,,E,]/G,/[B,,F,]/E,/ | [B,,D,F,][B,,D,F,][B,,D,F,] | %468
 [G,,=E,]/D,/[G,,C,]/E,/[G,,D,]/C,/ | [G,,E,]/D,/C,/D,/F,/E,/ | [G,,D,]/C,/B,,/[G,,G,]/F,/E,/ | %471
 [G,,D,]/C,/B,,/[G,,G,]/F,/E,/ | [G,,D,]/C,/B,,/[G,,C,]/D,/E,/ | %473
 [F,,F,]/G,/[_A,,_A,]/F,/[B,,B,]/A,/ | [B,,G,]/F,/[B,,E,]/G,/[B,,F,]/E,/ | %475
 [B,,D,F,][B,,D,F,][B,,D,F,] | [G,,=E,]/D,/[G,,C,]/E,/[G,,D,]/C,/ | [G,,E,]/D,/C,/D,/F,/E,/ | %478
 [G,,D,]/C,/B,,/[G,,G,]/F,/E,/ | [G,,D,]/C,/B,,/[G,,G,]/F,/E,/ | .[B,,,B,,]3 | z2 [B,,,B,,] | %482
 !>![C,,C,]2 [F,,F,] | !>![C,,C,]2 [F,,F,] | !>![C,,C,]2 z | z2 [A,,,A,,] | !>![D,,D,]2 [A,,,A,,] | %487
 !>![D,,D,]2 [A,,,A,,] | !>![D,,D,]2 z | z3 | z3 | z3 | z3 | z3 | %494
[K:treble] [Bd][Ac]/[GB]/[Ac]/[^FA]/ | [GB][DG][B,D] |!8vb(! [B,D][A,C]/[G,B,]/[A,C]/[^F,A,]/ | %497
 [G,B,][D,G,][B,,D,] | [E,G,][G,B,]/[E,G,]/[B,D]/[E,G,]/ | [EG][GB][Bd]!8vb)! | [G,B,DG] z2 | %501
[K:bass] [G,,G,] z2 | [G,,,G,,] z2 | z3 |] %504

